icons/sun-16.svg

<svg width="16" height="16" viewBox="0 0 16 16" fill="none" xmlns="http://www.w3.org/2000/svg">
<g clip-path="url(#clip0)">
<path fill-rule="evenodd" clip-rule="evenodd" d="M8 10.5C9.38071 10.5 10.5 9.38071 10.5 8C10.5 6.61929 9.38071 5.5 8 5.5C6.61929 5.5 5.5 6.61929 5.5 8C5.5 9.38071 6.61929 10.5 8 10.5ZM8 12C10.2091 12 12 10.2091 12 8C12 5.79086 10.2091 4 8 4C5.79086 4 4 5.79086 4 8C4 10.2091 5.79086 12 8 12Z" fill="black"/>
<path fill-rule="evenodd" clip-rule="evenodd" d="M8 0C8.41421 0 8.75 0.335786 8.75 0.75V2.25C8.75 2.66421 8.41421 3 8 3C7.58579 3 7.25 2.66421 7.25 2.25V0.75C7.25 0.335786 7.58579 0 8 0ZM8 13C8.41421 13 8.75 13.3358 8.75 13.75V15.25C8.75 15.6642 8.41421 16 8 16C7.58579 16 7.25 15.6642 7.25 15.25V13.75C7.25 13.3358 7.58579 13 8 13Z" fill="black"/>
<path fill-rule="evenodd" clip-rule="evenodd" d="M2.34329 2.34329C2.63618 2.0504 3.11106 2.0504 3.40395 2.34329L4.46461 3.40395C4.7575 3.69684 4.7575 4.17172 4.46461 4.46461C4.17172 4.7575 3.69684 4.7575 3.40395 4.46461L2.34329 3.40395C2.0504 3.11106 2.0504 2.63618 2.34329 2.34329ZM11.5357 11.5357C11.8286 11.2428 12.3034 11.2428 12.5963 11.5357L13.657 12.5963C13.9499 12.8892 13.9499 13.3641 13.657 13.657C13.3641 13.9499 12.8892 13.9499 12.5963 13.657L11.5357 12.5963C11.2428 12.3034 11.2428 11.8286 11.5357 11.5357Z" fill="black"/>
<path fill-rule="evenodd" clip-rule="evenodd" d="M16 8C16 8.41421 15.6642 8.75 15.25 8.75H13.75C13.3358 8.75 13 8.41421 13 8C13 7.58579 13.3358 7.25 13.75 7.25H15.25C15.6642 7.25 16 7.58579 16 8ZM3 8C3 8.41421 2.66421 8.75 2.25 8.75H0.75C0.335787 8.75 -1.81058e-08 8.41421 0 8C1.81058e-08 7.58579 0.335787 7.25 0.75 7.25H2.25C2.66421 7.25 3 7.58579 3 8Z" fill="black"/>
<path fill-rule="evenodd" clip-rule="evenodd" d="M13.6567 2.34329C13.9496 2.63618 13.9496 3.11106 13.6567 3.40395L12.596 4.46461C12.3032 4.7575 11.8283 4.7575 11.5354 4.46461C11.2425 4.17172 11.2425 3.69684 11.5354 3.40395L12.596 2.34329C12.8889 2.0504 13.3638 2.0504 13.6567 2.34329ZM4.46432 11.5357C4.75721 11.8286 4.75721 12.3034 4.46432 12.5963L3.40366 13.657C3.11077 13.9499 2.63589 13.9499 2.343 13.657C2.05011 13.3641 2.05011 12.8892 2.343 12.5963L3.40366 11.5357C3.69655 11.2428 4.17143 11.2428 4.46432 11.5357Z" fill="black"/>
</g>
<defs>
<clipPath id="clip0">
<rect width="16" height="16" fill="white"/>
</clipPath>
</defs>
</svg>

<svg xmlns="http://www.w3.org/2000/svg" width="16" height="16" viewBox="0 0 16 16"><path fill-rule="evenodd" d="M8 10.5a2.5 2.5 0 100-5 2.5 2.5 0 000 5zM8 12a4 4 0 100-8 4 4 0 000 8zM8 0a.75.75 0 01.75.75v1.5a.75.75 0 01-1.5 0V.75A.75.75 0 018 0zm0 13a.75.75 0 01.75.75v1.5a.75.75 0 01-1.5 0v-1.5A.75.75 0 018 13zM2.343 2.343a.75.75 0 011.061 0l1.06 1.061a.75.75 0 01-1.06 1.06l-1.06-1.06a.75.75 0 010-1.06zm9.193 9.193a.75.75 0 011.06 0l1.061 1.06a.75.75 0 01-1.06 1.061l-1.061-1.06a.75.75 0 010-1.061zM16 8a.75.75 0 01-.75.75h-1.5a.75.75 0 010-1.5h1.5A.75.75 0 0116 8zM3 8a.75.75 0 01-.75.75H.75a.75.75 0 010-1.5h1.5A.75.75 0 013 8zm10.657-5.657a.75.75 0 010 1.061l-1.061 1.06a.75.75 0 11-1.06-1.06l1.06-1.06a.75.75 0 011.06 0zm-9.193 9.193a.75.75 0 010 1.06l-1.06 1.061a.75.75 0 11-1.061-1.06l1.06-1.061a.75.75 0 011.061 0z"/></svg>
